packages/ui-icons/svg/Solid/line-reader.svg

<svg viewBox="0 0 1920 1920" version="1.1" xmlns="http://www.w3.org/2000/svg">
    <path d="M320.224,1705.45 L1386.89,1707.88 L1386.65,1814.55 L319.981,1812.12 L320.224,1705.45 Z M320.203,1492.12 L1600.2,1494.55 L1600,1601.22 L320.001,1598.78 L320.203,1492.12 Z M1866.67,320 C1896.12,320 1920,343.878 1920,373.334 L1920,1333.33 C1920,1362.79 1896.12,1386.67 1866.67,1386.67 L53.3334,1386.67 C23.8782,1386.67 0,1362.79 0,1333.33 L0,373.334 C0,343.878 23.8781,320 53.3333,320 L1866.67,320 Z M1653.33,586.667 L266.667,586.667 C237.50556,586.667 213.811118,610.069828 213.333,639.118041 L213.333,640 L213.333,853.334 C213.333,882.49445 236.735828,906.188882 265.785012,906.659855 L266.667,906.667 L1653.33,906.667 C1682.4954,906.667 1706.19184,883.264172 1706.67,854.215959 L1706.67,853.334 L1706.67,640 C1706.67,610.83955 1683.26521,587.145118 1654.21211,586.674145 L1653.33,586.667 Z M320.203,105.451 L1600.2,107.883 L1600,214.549 L320.001,212.118 L320.203,105.451 Z" fill-rule="nonzero" stroke="none" stroke-width="1"/>
</svg>

<svg viewBox="0 0 1920 1920" xmlns="http://www.w3.org/2000/svg">
    <path d="m320.224 1705.45 1066.666 2.43-.24 106.67-1066.669-2.43.243-106.67Zm-.021-213.33 1279.997 2.43-.2 106.67-1279.999-2.44.202-106.66ZM1866.67 320c29.45 0 53.33 23.878 53.33 53.334v959.996c0 29.46-23.88 53.34-53.33 53.34H53.333C23.878 1386.67 0 1362.79 0 1333.33V373.334C0 343.878 23.878 320 53.333 320H1866.67Zm-213.34 266.667H266.667c-29.161 0-52.856 23.403-53.334 52.451v214.216c0 29.16 23.403 52.855 52.452 53.326l.882.007H1653.33c29.165 0 52.862-23.403 53.34-52.451V640c0-29.16-23.405-52.855-52.458-53.326l-.882-.007ZM320.203 105.451l1279.997 2.432-.2 106.666-1279.999-2.431.202-106.667Z"/>
</svg>
